X: 1259
T: An Drochaid Chliùiteach
R: three-two
M: 3/2
K: Gmajor
M:6/4
|:Bd ^cd ed de dB g2|Bd d/^c/d ed- de dB A2|
B/c/d d/^c/d ed de dB g2|G2- GA B2 dB AG G2:|
|:gd ^cd ed de dB g2|gd d/^c/d ed- de dB A2|
gd d/^c/d e2 de dB g2|G2- GA BG dB AG G2:|

